symbols/web/print/materialsymbolsrounded/print_wght300gradN25fill1_20px.svg

<svg xmlns="http://www.w3.org/2000/svg" height="20" width="20"><path d="M14.458 6.312H5.542V4.104q0-.292.218-.51.219-.219.511-.219h7.458q.292 0 .511.219.218.218.218.51Zm.292 4.105q.333 0 .583-.25.25-.25.25-.584 0-.312-.25-.573-.25-.26-.583-.26-.312 0-.573.26-.26.261-.26.573 0 .334.26.584.261.25.573.25Zm-7.708 5.271h5.916q.104 0 .177-.073t.073-.198v-2.875H6.792v2.875q0 .125.073.198.073.073.177.073Zm0 1.25q-.625 0-1.063-.448-.437-.448-.437-1.073v-1.5H3.271q-.313 0-.531-.219-.219-.219-.219-.531V9.083q0-.812.594-1.427.593-.614 1.447-.614h10.876q.833 0 1.437.614.604.615.604 1.427v4.084q0 .312-.219.531-.218.219-.531.219h-2.271v1.5q0 .625-.437 1.073-.438.448-1.063.448Z"/></svg>

<svg xmlns="http://www.w3.org/2000/svg" height="20" width="20"><path d="M14.458 6.312H5.542V4.104Q5.542 3.812 5.76 3.594Q5.979 3.375 6.271 3.375H13.729Q14.021 3.375 14.24 3.594Q14.458 3.812 14.458 4.104ZM14.75 10.417Q15.083 10.417 15.333 10.167Q15.583 9.917 15.583 9.583Q15.583 9.271 15.333 9.01Q15.083 8.75 14.75 8.75Q14.438 8.75 14.177 9.01Q13.917 9.271 13.917 9.583Q13.917 9.917 14.177 10.167Q14.438 10.417 14.75 10.417ZM7.042 15.688H12.958Q13.062 15.688 13.135 15.615Q13.208 15.542 13.208 15.417V12.542H6.792V15.417Q6.792 15.542 6.865 15.615Q6.938 15.688 7.042 15.688ZM7.042 16.938Q6.417 16.938 5.979 16.49Q5.542 16.042 5.542 15.417V13.917H3.271Q2.958 13.917 2.74 13.698Q2.521 13.479 2.521 13.167V9.083Q2.521 8.271 3.115 7.656Q3.708 7.042 4.562 7.042H15.438Q16.271 7.042 16.875 7.656Q17.479 8.271 17.479 9.083V13.167Q17.479 13.479 17.26 13.698Q17.042 13.917 16.729 13.917H14.458V15.417Q14.458 16.042 14.021 16.49Q13.583 16.938 12.958 16.938Z"/></svg>
